src/status/22/indicator-messages-new.svg

<svg width="22" height="22" version="1.1" xmlns="http://www.w3.org/2000/svg">
 <path d="m11 3a1 1 0 0 0-0.994 1.1 4.988 4.988 0 0 0-4.006 4.9v4.5l-2 2v0.5h14v-0.5l-2-2v-3.63a4 4 0 0 1-1 0.126v3.926l1 1.078h-10l1-1.078v-4.922a4 4 0 0 1 4-4c0.044 1e-3 0.087 3e-3 0.13 6e-3a4 4 0 0 1 0.741-1.492 1 1 0 0 0-0.871-0.514zm-1.73 14a2 2 0 0 0 1.73 1 2 2 0 0 0 1.728-1z" fill="#363636" stroke-linecap="round" stroke-width="3"/>
 <path d="m18 6a3 3 0 0 1-6 0 3 3 0 1 1 6 0z" color="#bebebe" fill="#009dff" overflow="visible" stroke-width="1.2" style="isolation:auto;mix-blend-mode:normal"/>
</svg>

<svg xmlns="http://www.w3.org/2000/svg" width="22" height="22">
    <path fill="#050505" fill-opacity=".7" d="M11 3a1 1 0 0 0-.994 1.1A4.988 4.988 0 0 0 6 9v4.5l-2 2v.5h14v-.5l-2-2V9.87a4 4 0 0 1-1 .126v3.926L16 15H6l1-1.078V9a4 4 0 0 1 4-4c.044.001.087.003.13.006a4 4 0 0 1 .741-1.492A1 1 0 0 0 11 3zM9.27 17A2 2 0 0 0 11 18a2 2 0 0 0 1.728-1z"/>
    <path fill="#a0b6cb" d="M18 6a3 3 0 0 1-6 0 3 3 0 1 1 6 0z" color="#bebebe" overflow="visible" style="isolation:auto;mix-blend-mode:normal"/>
</svg>
